svgs/sharp-solid/vector-circle.svg

<svg xmlns="http://www.w3.org/2000/svg" viewBox="0 0 512 512"><!--! Font Awesome Pro 6.6.0 by @fontawesome - https://fontawesome.com License - https://fontawesome.com/license (Commercial License) Copyright 2024 Fonticons, Inc. --><path d="M192 0L320 0l0 41.3C392.2 62.8 449.2 119.8 470.7 192l41.3 0 0 128-41.3 0C449.2 392.2 392.2 449.2 320 470.7l0 41.3-128 0 0-41.3C119.8 449.2 62.8 392.2 41.3 320L0 320 0 192l41.3 0C62.8 119.8 119.8 62.8 192 41.3L192 0zM402.7 192c-16.1-36.9-45.8-66.6-82.7-82.7l0 18.7-128 0 0-18.7c-36.9 16.1-66.6 45.8-82.7 82.7l18.7 0 0 128-18.7 0c16.1 36.9 45.8 66.6 82.7 82.7l0-18.7 128 0 0 18.7c36.9-16.1 66.6-45.8 82.7-82.7L384 320l0-128 18.7 0zM240 48l0 32 32 0 0-32-32 0zm32 384l-32 0 0 32 32 0 0-32zM432 240l0 32 32 0 0-32-32 0zM80 240l-32 0 0 32 32 0 0-32z"/></svg>

<svg xmlns="http://www.w3.org/2000/svg" viewBox="0 0 512 512"><!--! Font Awesome Pro 6.5.2 by @fontawesome - https://fontawesome.com License - https://fontawesome.com/license (Commercial License) Copyright 2024 Fonticons, Inc. --><path d="M192 0H320V41.3C392.2 62.8 449.2 119.8 470.7 192H512V320H470.7C449.2 392.2 392.2 449.2 320 470.7V512H192V470.7C119.8 449.2 62.8 392.2 41.3 320H0V192H41.3C62.8 119.8 119.8 62.8 192 41.3V0zM402.7 192c-16.1-36.9-45.8-66.6-82.7-82.7V128H192V109.3c-36.9 16.1-66.6 45.8-82.7 82.7H128V320H109.3c16.1 36.9 45.8 66.6 82.7 82.7V384H320v18.7c36.9-16.1 66.6-45.8 82.7-82.7H384V192h18.7zM240 48V80h32V48H240zm32 384H240v32h32V432zM432 240v32h32V240H432zM80 240H48v32H80V240z"/></svg>
